src/common/images/icon-imprimante.svg

<svg width="459px" height="483px" viewBox="0 0 459 483" version="1.1" xmlns="http://www.w3.org/2000/svg" xmlns:xlink="http://www.w3.org/1999/xlink">
    <!-- Generator: Sketch 47 (45396) - http://www.bohemiancoding.com/sketch -->
    <desc>Created with Sketch.</desc>
    <defs>
        <polygon id="path-1" points="0 0.5 458.5998 0.5 458.5998 483 0 483"></polygon>
    </defs>
    <g id="Symbols" stroke="none" stroke-width="1" fill="none" fill-rule="evenodd">
        <g id="Pictos/Imprimante" transform="translate(0.000000, -1.000000)">
            <g id="Group">
                <g id="Page-1">
                    <g id="Group-3" transform="translate(0.000000, 0.500000)">
                        <mask id="mask-2" fill="white">
                            <use xlink:href="#path-1"></use>
                        </mask>
                        <g id="Clip-2"></g>
                        <path d="M431.5998,285.8 C431.5998,310.2 411.7008,330.1 387.2998,330.1 L374.8998,330.1 L374.8998,298.5 L392.7008,298.5 C400.2008,298.5 406.2008,292.5 406.2008,285 C406.2008,277.5 400.2008,271.5 392.7008,271.5 L62.6998,271.5 C55.1998,271.5 49.1998,277.5 49.1998,285 C49.1998,292.5 55.1998,298.5 62.6998,298.5 L82.5998,298.5 L82.5998,330.1 L71.2998,330.1 C46.8998,330.1 26.9998,310.2 26.9998,285.8 L26.9998,170.8 C26.9998,146.4 46.8998,126.5 71.2998,126.5 L387.2998,126.5 C411.7008,126.5 431.5998,146.4 431.5998,170.8 L431.5998,285.8 Z M347.7998,447.6 C347.7998,452.3 343.8998,456.2 339.2008,456.2 L118.0998,456.2 C113.3998,456.2 109.4998,452.3 109.4998,447.6 L109.4998,298.5 L347.7998,298.5 L347.7998,447.6 Z M109.4998,71.8 C109.4998,47.4 129.3998,27.5 153.7998,27.5 L303.3998,27.5 C327.7998,27.5 347.7008,47.4 347.7008,71.8 L347.7008,99.4 L109.4998,99.4 L109.4998,71.8 Z M387.2998,99.4 L374.8998,99.4 L374.8998,71.8 C374.8998,32.5 342.8998,0.5 303.5998,0.5 L153.8998,0.5 C114.5998,0.5 82.5998,32.5 82.5998,71.8 L82.5998,99.4 L71.2998,99.4 C31.9998,99.4 -0.0002,131.4 -0.0002,170.7 L-0.0002,285.7 C-0.0002,325 31.9998,357 71.2998,357 L82.4998,357 L82.4998,447.4 C82.4998,467 98.4998,483 118.0998,483 L339.2008,483 C358.7998,483 374.7998,467 374.7998,447.4 L374.7998,357 L387.2998,357 C426.5998,357 458.5998,325 458.5998,285.7 L458.5998,170.7 C458.5998,131.4 426.5998,99.4 387.2998,99.4 L387.2998,99.4 Z" id="Fill-1" fill="#4D4D4D" mask="url(#mask-2)"></path>
                    </g>
                    <path d="M142.1999,365.3996 L314.0999,365.3996 C321.5999,365.3996 327.5999,359.3996 327.5999,351.8996 C327.5999,344.3996 321.5999,338.3996 314.0999,338.3996 L142.1999,338.3996 C134.6999,338.3996 128.6999,344.3996 128.6999,351.8996 C128.6999,359.3996 134.7999,365.3996 142.1999,365.3996" id="Fill-4" fill="#4D4D4D"></path>
                    <path d="M315.2004,393.5998 L143.2004,393.5998 C135.7004,393.5998 129.7004,399.5998 129.7004,407.0998 C129.7004,414.5998 135.7004,420.5998 143.2004,420.5998 L315.0994,420.5998 C322.5994,420.5998 328.5994,414.5998 328.5994,407.0998 C328.5994,399.5998 322.5994,393.5998 315.2004,393.5998" id="Fill-6" fill="#4D4D4D"></path>
                    <path d="M387.0002,152.9001 L359.6002,152.9001 C352.1002,152.9001 346.1002,158.9001 346.1002,166.4001 C346.1002,173.9001 352.1002,179.9001 359.6002,179.9001 L387.0002,179.9001 C394.5002,179.9001 400.5002,173.9001 400.5002,166.4001 C400.5002,158.9001 394.5002,152.9001 387.0002,152.9001" id="Fill-8" fill="#CBD301"></path>
                </g>
            </g>
        </g>
    </g>
</svg>

<?xml version="1.0" encoding="utf-8"?>
<!-- Generator: Adobe Illustrator 16.0.0, SVG Export Plug-In . SVG Version: 6.00 Build 0)  -->
<!DOCTYPE svg PUBLIC "-//W3C//DTD SVG 1.0//EN" "http://www.w3.org/TR/2001/REC-SVG-20010904/DTD/svg10.dtd">
<svg version="1.0" id="Layer_1" xmlns="http://www.w3.org/2000/svg" xmlns:xlink="http://www.w3.org/1999/xlink" x="0px" y="0px"
	 width="458.6px" height="482.5px" viewBox="0 0 458.6 482.5" enable-background="new 0 0 458.6 482.5" xml:space="preserve">
<g id="Symbols">
	<g id="Pictos_x2F_Imprimante" transform="translate(0.000000, -1.000000)">
		<g id="Group">
			<g id="Page-1">
				<g id="Group-3" transform="translate(0.000000, 0.500000)">
					<g id="Clip-2">
					</g>
					<defs>
						<filter id="Adobe_OpacityMaskFilter" filterUnits="userSpaceOnUse" x="0" y="0.5" width="458.6" height="482.5">
							<feColorMatrix  type="matrix" values="1 0 0 0 0  0 1 0 0 0  0 0 1 0 0  0 0 0 1 0"/>
						</filter>
					</defs>
					<mask maskUnits="userSpaceOnUse" x="0" y="0.5" width="458.6" height="482.5" id="mask-2_2_">
						<g filter="url(#Adobe_OpacityMaskFilter)">
							<polygon id="path-1_2_" fill="#FFFFFF" points="0,0.5 458.6,0.5 458.6,483 0,483 							"/>
						</g>
					</mask>
					<path id="Fill-1" mask="url(#mask-2_2_)" fill="#4E4E4E" d="M431.6,285.8c0,24.4-19.898,44.3-44.3,44.3h-12.4v-31.6h17.802
						c7.5,0,13.5-6,13.5-13.5s-6-13.5-13.5-13.5H62.7c-7.5,0-13.5,6-13.5,13.5s6,13.5,13.5,13.5h19.9v31.6H71.3
						C46.9,330.1,27,310.2,27,285.8v-115c0-24.4,19.9-44.3,44.3-44.3h316c24.401,0,44.3,19.9,44.3,44.3V285.8z M347.8,447.6
						c0,4.7-3.9,8.601-8.599,8.601H118.1c-4.7,0-8.6-3.9-8.6-8.601V298.5h238.3V447.6z M109.5,71.8c0-24.4,19.9-44.3,44.3-44.3
						H303.4c24.399,0,44.301,19.9,44.301,44.3v27.6H109.5V71.8z M387.3,99.4h-12.4V71.8c0-39.3-32-71.3-71.3-71.3H153.9
						c-39.3,0-71.3,32-71.3,71.3v27.6H71.3C32,99.4,0,131.4,0,170.7v115C0,325,32,357,71.3,357h11.2v90.4c0,19.6,16,35.6,35.6,35.6
						h221.102c19.599,0,35.599-16,35.599-35.6V357h12.5c39.3,0,71.3-32,71.3-71.3v-115C458.6,131.4,426.6,99.4,387.3,99.4
						L387.3,99.4z"/>
				</g>
				<path id="Fill-4" fill="#4E4E4E" d="M142.2,365.399h171.9c7.5,0,13.5-6,13.5-13.5s-6-13.5-13.5-13.5H142.2
					c-7.5,0-13.5,6-13.5,13.5S134.8,365.399,142.2,365.399"/>
				<path id="Fill-6" fill="#4E4E4E" d="M315.2,393.6h-172c-7.5,0-13.5,6-13.5,13.5s6,13.5,13.5,13.5H315.1c7.5,0,13.5-6,13.5-13.5
					S322.6,393.6,315.2,393.6"/>
				<path id="Fill-8" fill="#C9D22C" d="M387,152.9h-27.399c-7.5,0-13.5,6-13.5,13.5s6,13.5,13.5,13.5H387c7.5,0,13.5-6,13.5-13.5
					S394.5,152.9,387,152.9"/>
			</g>
		</g>
	</g>
</g>
</svg>
